!!!OTL: WENN DU BEI MEIN SCHAETZCHEN KOMMST, SAG: ICH LIESS SIE GRUESSEN
!!!ARE: Europa, Mitteleuropa, Deutschland, Nord - Deutschland
!!!SCT: Z0276
!!!YEM: Copyright 1995, estate of Helmut Schaffrath.
**kern
*ICvox
*Ivox
*M2/4
*k[f#c#]
*D:
{8dd
16cc#
16b
8a
8g
=1
8f#
8g
4a}
=2
{8dd
16cc#
16b
8a
8g
=3
4f#
4e}
=4
{8dd
16cc#
16b
8a
8g
=5
8f#
8g
4a}
=6
{8f#
8d
8e
8c#
=7
4d
4d}
=8
{8d
8f#
8d
8f#
=9
8d
8f#
4a}
=10
{8c#
8e
8c#
8e
=11
8c#
8e
4g}
=12
{8d
8f#
8d
8f#
=13
8d
8f#
4a}
=14
{8f#
8d
8e
8c#
=15
4d
4d}
==
!!!AGN: Lyrisches Lied, Romanze, Scherz - Lied
!!!ONB: ESAC (Essen Associative Code) Database: ZUCCAL
!!!AMT: simple duple
!!!AIN: vox
!!!EED: Helmut Schaffrath
!!!EEV: 1.0
*-
